packages/kaspersky-hexa-ui-icons/src/iconsSVGs/48/App.svg

<svg xmlns="http://www.w3.org/2000/svg" width="48" height="48" fill="none" viewBox="0 0 48 48"><path fill="currentColor" fill-rule="evenodd" d="M0 3v42h48V3zm46 2v4H2V5zM2 43V11h44v32zM45 8h-2V6h2zm-4 0h-2V6h2z" clip-rule="evenodd"/></svg>

<svg width="48" height="48" viewBox="0 0 48 48" fill="none" xmlns="http://www.w3.org/2000/svg">
<path fill-rule="evenodd" clip-rule="evenodd" d="M0 3V45H48V3H0ZM46 5V9H2V5H46ZM2 43V11H46V43H2ZM45 8H43V6H45V8ZM41 8H39V6H41V8Z"  fill="currentColor"/>
</svg>
